!!!COM: Schiørring, Niels
!!!CDT: 1743-1798
!!!OPR@@DA: Choral-Bog
!!!ONM: 18
!!!OTL@@DA: Et troefaſt Hierte, o Herre min
**kern	**fb	**kern	**kern	**kern	**kern	**kern	**kern	**kern
*part6	*part6	*part6	*part5	*part5	*part4	*part3	*part2	*part1
*staff8	*	*staff7	*staff6	*staff5	*staff4	*staff3	*staff2	*staff1
*clefF4	*	*clefC1	*clefF4	*clefC1	*clefF4	*clefC4	*clefC3	*clefC1
*k[b-e-]	*	*k[b-e-]	*k[b-e-]	*k[b-e-]	*k[b-e-]	*k[b-e-]	*k[b-e-]	*k[b-e-]
*B-:	*	*B-:	*B-:	*B-:	*B-:	*B-:	*B-:	*B-:
*M4/4	*	*M4/4	*M4/4	*M4/4	*M4/4	*M4/4	*M4/4	*M4/4
*met(c)	*	*met(c)	*met(c)	*met(c)	*met(c)	*met(c)	*met(c)	*met(c)
*MM180	*	*MM180	*MM180	*MM180	*MM180	*MM180	*MM180	*MM180
*	*	*	*^	*^	*	*	*	*
2G	.	2g	2B-	2G	2g	2d	2G	2B-	2d	2g
=1	=1	=1	=1	=1	=1	=1	=1	=1	=1	=1
2E-	.	2g	1B-	2E-	2g	2e-	2E-	2B-	2e-	2g
2D	6	2b-	.	2D	2b-	2f	2D	2B-	2f	2b-
=2	=2	=2	=2	=2	=2	=2	=2	=2	=2	=2
2C	6	2a	2.c	2C	2a	2e-	2C	[2c	2e-	2a
2D	7	2f	.	2D	2f	2f	2D	(4c]	2f	2f
=3	=3	=3	=3	=3	=3	=3	=3	=3	=3	=3
2E-	6	2g	2B-	2E-	2g	1e-	2E-	2B-	2e-	2g
2C	6	2a	2c	2C	2a	.	2C	2c	2e-	2a
=4	=4	=4	=4	=4	=4	=4	=4	=4	=4	=4
2BB-	.	2b-	2F	2BB-	2b-	2d	2BB-	2d	2f	2b-
2F	.	2a	2F	2F	2a	2c	2F	2c	2f	2a
=5	=5	=5	=5	=5	=5	=5	=5	=5	=5	=5
2D	6	2b-	2F	2D	2b-	2f	2D	2d	2f	2b-
2C	6	2cc	2A	2C	2cc	2e-	2C	2A	2e-	2cc
=6	=6	=6	=6	=6	=6	=6	=6	=6	=6	=6
2BB-	.	2dd	[1B-	2BB-	2dd	1f	2BB-	2F	2f	2dd
2D	6	2b-	.	2D	2b-	.	2D	[2B-	2f	2b-
=7	=7	=7	=7	=7	=7	=7	=7	=7	=7	=7
2E-	6 5	1cc	2B-]	2E-	1cc	2g	(2E-	(2B-]	(2g	1cc
2F	.	.	2A	2F	.	2f	2F)	2A)	2f)	.
=	=	=	=	=	=	=	=	=	=	=
*	*	*	*	*	*	*^	*	*	*	*
2BB-	.	2cc	2B-	2BB-	2cc	2d	2f/	2BB-	2B-	2d	2cc
=8:|!	=8:|!	=8:|!	=8:|!	=8:|!	=8:|!	=8:|!	=8:|!	=8:|!	=8:|!	=8:|!	=8:|!
2BB-	.	2dd	2B-	2BB-	2dd	2f	2b-/	2BB-	2B-	2f	2dd
*	*	*	*	*	*	*v	*v	*	*	*	*
=9	=9	=9	=9	=9	=9	=9	=9	=9	=9	=9
2BB-	.	2dd	1B-	2BB-	2dd	1f	2BB-	2B-	2f	2dd
2D	6	2b-	.	2D	2b-	.	2D	2B-	2f	2b-
=10	=10	=10	=10	=10	=10	=10	=10	=10	=10	=10
2F	.	2cc	2A	2F	2cc	2f	2F	2A	2f	2cc
2F#X	6	2dd	2A	2F#X	2dd	2d	2F#X	2d	2a	2dd
=11	=11	=11	=11	=11	=11	=11	=11	=11	=11	=11
2G	.	2b-	[2G	2G	2b-	2d	2G	2d	2g	2b-
2C#X	7 5	2b-	2G]	2C#X	2b-	2en	2C#X	2e	2g	2b-
=12	=12	=12	=12	=12	=12	=12	=12	=12	=12	=12
2D	#	2a	2F#X	2D	2a	2d	2D	2d	2f#X	2a
4D	.	2a	2F#	4D	2a	2d	(4D	2d	2f#	2a
4Cni	.	.	.	4Cni	.	.	4Cni)	.	.	.
=13	=13	=13	=13	=13	=13	=13	=13	=13	=13	=13
2BB-	6	2g	2.G	2BB-	2g	2.d	2BB-	2d	2g	2g
*	*	*	*	*	*	*	*^	*	*	*
2GG	5	2b-	.	2GG	2b-	.	2G	2GG	2B-	(4d	2b-
=14	=14	=14	=14	=14	=14	=14	=14	=14	=14	=14	=14
2FF	nr6	2a	2ryy@	2FF	2c	2f	2F	2FF	2c	2f	2a
*	*	*	*	*	*	*	*v	*v	*	*	*
2BB-	.	2f	2B-	2BB-	2f	2d	2BB-	2d	2f	2f
=15	=15	=15	=15	=15	=15	=15	=15	=15	=15	=15
2E-	.	2g	2B-	2E-	2g	1e-	2E-	2B-	2e-	2g
2C	6	2a	2c	2C	2a	.	2C	2c	2e-	2a
=16	=16	=16	=16	=16	=16	=16	=16	=16	=16	=16
2BB-	.	2b-	2F	2BB-	2b-	2d	2BB-	2F	2d	2b-
2E-	2	2a	2c	2E-	2a	2f	2E-	2c	2f	2a
=17	=17	=17	=17	=17	=17	=17	=17	=17	=17	=17
2D	6	2b-	2.B-	2D	2b-	2f	2D	[2B-	2f	2b-
2C	7	2cc	.	2C	2cc	2e-	2C	(4B-]	2e-	2cc
=18	=18	=18	=18	=18	=18	=18	=18	=18	=18	=18
2BB-	7	2dd	4A]	2BB-	2dd	2.d	2BB-	(4A]	[2d	2dd
2E-	7 5	2b-	[2G	2E-	2b-	.	2E-	[2G	(4d]	2b-
=19	=19	=19	=19	=19	=19	=19	=19	=19	=19	=19
2C	6 5	1a	2G]	2C	1a	2e-	(2C	(2G]	(2e-	1a
2D	#	.	4F#X	2D	.	2d	2D)	2F#X)	2d)	.
.	.	.	4c	.	.	.	.	.	.	.
=20	=20	=20	=20	=20	=20	=20	=20	=20	=20	=20
2GG	.	2g	2ryy	2GG	2B-	2d	2GG	2G	2B-	2g
*	*	*	*v	*v	*	*	*	*	*	*
*	*	*	*	*v	*v	*	*	*	*
==	==	==	==	==	==	==	==	==
*-	*-	*-	*-	*-	*-	*-	*-	*-
!!!system-decoration: {(s1,s2,s3,s4)}{(s5,s6)}{(s7,s8)}
!!!RDF**kern: i = editorial accidental
!!!AGN: chorale
!!!EED: Derek Remeš
!!!EED2: Victor Phan
!!!END: 2023/11/28
!!!ENC: Wolfgang Drescher
!!!EEV: 2023/11/29
!!!title: @{ONM}. @{OTL}